X:63
T: STAND ICH AUF HOHEM BERGE
N: Z0064
O: Europa, Mitteleuropa, Deutschland
R: Sagen - Lied, Romanze
M: 2/4
L: 1/8
K: G
D | BGdB | B2AA | BGdB | A2z
A | dddd | dBG2 | c2e2 | dBG
d | dcAF | G2z

